X:1
T:Look for the Way-Marks
T:Look for the Way-Marks
T:Franklin Edson Belden
T:Franklin Edson Belden, 1886
T:Public Domain Courtesy of the Cyber Hymnal™
T:Public Domain Courtesy of the Cyber Hymnal™
C:Franklin Edson Belden
Z:Public Domain
Z:Courtesy of the Cyber Hymnal™
%%score ( 1 2 ) ( 3 4 )
L:1/8
Q:1/4=103
M:4/4
K:G
V:1 treble 
V:2 treble 
V:3 bass 
V:4 bass 
V:1
 [B,G]2 [G,B,]>[A,C] [B,D]2 [B,G]2 | [DB]>[CA] [B,G]>[CA] [DB]4 | [EB]2 E>[^DF] [EG]2 [EG]2 | %3
w: 1.~Look for the way- marks|as you jour- ney on,|Look for the way- marks|
w: 2.~First, the As- syr- ian|king- dom ruled the world,|Then Me- do- Per- sia’s|
w: 3.~Down in the feet of|ir- on and of clay,|Weak and di- vid- ed,|
 [FA]>[FA] [FA]>[GB] [FA]4 | [DG]2 [DG]>[DA] [DB]2 [DG]2 | [EA]>[EG] [EA][EB] [Ec]4 | %6
w: pass- ing one by one;|Down through the ag- es,|past the king- doms four—|
w: ban- ners were un- furled;|And af- ter Greece held|un- i- vers- al sway,|
w: soon to pass a- way;|What will the next great,|glo- rious dra- ma be?|
 [GB]2 [DG]>[DF] [CE]2 !fermata![EA]2 | [DG]>[DF] [DE][DF] [DG]4 || %8
w: Where are we stand- ing?|Look the way- marks o’er.|
w: Rome seized the scep- ter—|where are we to- day?|
w: Christ and His com- ing,|and e- ter- ni- ty.|
"^Refrain" [Gd]2 [Gd]>[Gd] [Gd]2 [GB]>[FA] | [EG]>[EG] [EG]>[EA] [^DB]2 [DB]2 | %10
w: ||
w: Look for the way- marks, the|great pro- phet- ic way- marks,|
w: ||
 [CE]2 [CE]>[CF] [EG]2 [EG]2 | [DF]>[DG] [FA]>[GB] (A2 d2) | [Gd]2 [Gd]>[Gd] [Gd]2 [GB]>[FA] | %13
w: |||
w: Down through the ag- es,|past the king- doms four. *|Look for the way- marks, the|
w: |||
 [EG]>[EG] [EA]>[EB] [Ec]2 !fermata![Ec]>[EA] | [DG]3 [DG] [DB]2 [DA]2 | [DG]6 z2 |] %16
w: |||
w: great pro- phet- ic way- marks; The|jour- ney’s al- most|o’er.|
w: |||
V:2
 x8 | x8 | x8 | x8 | x8 | x8 | x8 | x8 || x8 | x8 | x8 | x4 F4 | x8 | x8 | x8 | x8 |] %16
V:3
 [G,,G,]2 [G,,D,]>[G,,G,] [G,,G,]2 [G,,D,]2 | [G,,G,]>[G,,G,] [G,,D,]>[G,,G,] [G,,G,]4 | %2
 [E,G,]2 [G,B,]>[F,A,] [E,B,]2 [E,B,]2 | [D,D]>[D,D] [D,D]>[D,D] [D,D]4 | %4
 [G,B,]2 [B,,G,]>[D,F,] [G,,G,]2 [B,,G,]2 | [C,E,]>[C,C] [C,A,][B,,^G,] [A,,A,]4 | %6
 [G,,D]2 [B,,G,]>[B,,G,] [C,G,]2 !fermata![A,,C]2 | [D,B,]>[D,A,] [D,G,][D,A,] [G,,B,]4 || %8
 [G,B,]2 [G,B,]>[G,B,] [G,B,]2 [G,D]>[D,C] | [E,B,]>[E,B,] [E,B,]>[E,B,] [B,,B,]2 [B,,B,]2 | %10
 [C,G,]2 [C,G,]>[C,G,] [C,C]2 [C,C]2 | [D,A,]>[D,B,] [D,D]>[D,D] (D2 C2) | %12
 [G,B,]2 [G,B,]>[G,B,] [G,B,]2 [G,D]>[D,C] | %13
 [E,B,]>[E,B,] [E,B,]>[E,G,] [A,,A,]2 !fermata![A,,A,]>[C,A,] | [D,B,]3 [D,B,] [D,G,]2 [D,C]2 | %15
 [G,,B,]6 z2 |] %16
V:4
 x8 | x8 | x8 | x8 | x8 | x8 | x8 | x8 || x8 | x8 | x8 | x4 D,4 | x8 | x8 | x8 | x8 |] %16

